X: 1
T: Phil's
M: 6/8
L: 1/8
R: jig
K: Ador
|:eAA BAB|eAA B^cd|eAA BAB|dBG GBd|
eAA BAB|eAA B^cd|egg gfe|dBG GBd:|
|:A2|aae aae|aae a A2|aae f ~g2|g gfe|dBG GBd|
A2|aae aae|aae f ~g2|g gfe|dBG GBd :|
